_site/images/verification-page/integrations-icon.svg

<svg fill="none" height="30" viewBox="0 0 30 30" width="30" xmlns="http://www.w3.org/2000/svg"><rect fill="#65a2fd" height="30" rx="7" width="30"/><path clip-rule="evenodd" d="m17.294 12.2946c.2304-1.1563 1.2449-1.9891 2.4239-1.9899 1.2016.0221 2.2133.9047 2.3984 2.0921.185 1.1874-.5103 2.336-1.6482 2.7226-.3263 1.5195-1.6693 2.6049-3.2235 2.6052h-3.2977c-.6637.002-1.2615.4016-1.517 1.0141 1.1011.4546 1.7218 1.6295 1.4765 2.7953-.2452 1.1657-1.2866 1.9911-2.4775 1.9635-1.191-.0276-2.19309-.9002-2.38411-2.0761-.19102-1.1758.48333-2.3208 1.60431-2.7239v-6.8923c-1.13569-.4016-1.81695-1.5629-1.61325-2.75013.2037-1.18725 1.23315-2.05507 2.43765-2.05507 1.2046 0 2.234.86782 2.4377 2.05507.2037 1.18723-.4775 2.34853-1.6132 2.75013v4.7322c.4979-.2997 1.0677-.4592 1.6489-.4616h3.2977c.6667.0013 1.2685-.3988 1.5252-1.0141-1.0886-.4527-1.7063-1.6109-1.4758-2.7671zm-4.9968-2.81406c0-.45532-.3691-.82443-.8245-.82443-.4553 0-.8244.36911-.8244.82443 0 .45533.3691.82446.8244.82446.4554 0 .8245-.36913.8245-.82446zm-.8245 12.36656c-.4553 0-.8244-.3691-.8244-.8244 0-.4554.3691-.8245.8244-.8245.4554 0 .8245.3691.8245.8245 0 .4553-.3691.8244-.8245.8244zm7.4208-9.0682c0 .4553.3691.8244.8244.8244s.8245-.3691.8245-.8244-.3692-.8244-.8245-.8244-.8244.3691-.8244.8244z" fill="#fff" fill-rule="evenodd"/></svg>

<svg width="30" height="30" viewBox="0 0 30 30" fill="none" xmlns="http://www.w3.org/2000/svg">
<rect width="30" height="30" rx="7" fill="#65A2FD"/>
<path fill-rule="evenodd" clip-rule="evenodd" d="M17.294 12.2946C17.5244 11.1383 18.5389 10.3055 19.7179 10.3047C20.9195 10.3268 21.9312 11.2094 22.1163 12.3968C22.3013 13.5842 21.606 14.7328 20.4681 15.1194C20.1418 16.6389 18.7988 17.7243 17.2446 17.7246H13.9469C13.2832 17.7266 12.6854 18.1262 12.4299 18.7387C13.531 19.1933 14.1517 20.3682 13.9064 21.534C13.6612 22.6997 12.6198 23.5251 11.4289 23.4975C10.2379 23.4699 9.23581 22.5973 9.04479 21.4214C8.85377 20.2456 9.52812 19.1006 10.6491 18.6975V11.8052C9.51341 11.4036 8.83215 10.2423 9.03585 9.05507C9.23955 7.86782 10.269 7 11.4735 7C12.6781 7 13.7075 7.86782 13.9112 9.05507C14.1149 10.2423 13.4337 11.4036 12.298 11.8052V16.5374C12.7959 16.2377 13.3657 16.0782 13.9469 16.0758H17.2446C17.9113 16.0771 18.5131 15.677 18.7698 15.0617C17.6812 14.609 17.0635 13.4508 17.294 12.2946ZM12.2972 9.48054C12.2972 9.02522 11.9281 8.65611 11.4727 8.65611C11.0174 8.65611 10.6483 9.02522 10.6483 9.48054C10.6483 9.93587 11.0174 10.305 11.4727 10.305C11.9281 10.305 12.2972 9.93587 12.2972 9.48054ZM11.4727 21.8471C11.0174 21.8471 10.6483 21.478 10.6483 21.0227C10.6483 20.5673 11.0174 20.1982 11.4727 20.1982C11.9281 20.1982 12.2972 20.5673 12.2972 21.0227C12.2972 21.478 11.9281 21.8471 11.4727 21.8471ZM18.8935 12.7789C18.8935 13.2342 19.2626 13.6033 19.7179 13.6033C20.1732 13.6033 20.5424 13.2342 20.5424 12.7789C20.5424 12.3236 20.1732 11.9545 19.7179 11.9545C19.2626 11.9545 18.8935 12.3236 18.8935 12.7789Z" fill="white"/>
</svg>
